; G-Code generated by Simplify3D(R) Version 4.1.2
; Apr 5, 2021 at 8:44:33 PM
; Settings Summary
;   processName,Process1
;   applyToModels,CP-BO Back v15
;   profileName,PLA (modified)
;   profileVersion,2020-12-09 13:37:22
;   baseProfile,Default (modified)
;   printMaterial,PLA
;   printQuality,Medium
;   printExtruders,
;   extruderName,Primary Extruder
;   extruderToolheadNumber,0
;   extruderDiameter,0.4
;   extruderAutoWidth,1
;   extruderWidth,0.48
;   extrusionMultiplier,1
;   extruderUseRetract,1
;   extruderRetractionDistance,4.5
;   extruderExtraRestartDistance,0
;   extruderRetractionZLift,1
;   extruderRetractionSpeed,3600
;   extruderUseCoasting,1
;   extruderCoastingDistance,0.2
;   extruderUseWipe,0
;   extruderWipeDistance,5
;   primaryExtruder,0
;   layerHeight,0.2
;   topSolidLayers,3
;   bottomSolidLayers,3
;   perimeterOutlines,3
;   printPerimetersInsideOut,1
;   startPointOption,1
;   startPointOriginX,0
;   startPointOriginY,0
;   sequentialIslands,0
;   spiralVaseMode,0
;   firstLayerHeightPercentage,120
;   firstLayerWidthPercentage,120
;   firstLayerUnderspeed,0.4
;   useRaft,0
;   raftExtruder,0
;   raftTopLayers,2
;   raftBaseLayers,2
;   raftOffset,3
;   raftSeparationDistance,0.14
;   raftTopInfill,80
;   aboveRaftSpeedMultiplier,0.3
;   useSkirt,1
;   skirtExtruder,0
;   skirtLayers,1
;   skirtOutlines,3
;   skirtOffset,2
;   usePrimePillar,0
;   primePillarExtruder,999
;   primePillarWidth,12
;   primePillarLocation,7
;   primePillarSpeedMultiplier,0.95
;   useOozeShield,0
;   oozeShieldExtruder,999
;   oozeShieldOffset,2
;   oozeShieldOutlines,1
;   oozeShieldSidewallShape,1
;   oozeShieldSidewallAngle,30
;   oozeShieldSpeedMultiplier,0.96
;   infillExtruder,0
;   internalInfillPattern,Fast Honeycomb
;   externalInfillPattern,Rectilinear
;   infillPercentage,15
;   outlineOverlapPercentage,40
;   infillExtrusionWidthPercentage,100
;   minInfillLength,5
;   infillLayerInterval,1
;   internalInfillAngles,0
;   overlapInternalInfillAngles,0
;   externalInfillAngles,0
;   generateSupport,1
;   supportExtruder,0
;   supportInfillPercentage,20
;   supportExtraInflation,0
;   supportBaseLayers,0
;   denseSupportExtruder,0
;   denseSupportLayers,0
;   denseSupportInfillPercentage,70
;   supportLayerInterval,1
;   supportHorizontalPartOffset,0.4
;   supportUpperSeparationLayers,1
;   supportLowerSeparationLayers,1
;   supportType,0
;   supportGridSpacing,2
;   maxOverhangAngle,55
;   supportAngles,45
;   temperatureName,Primary Extruder,BED
;   temperatureNumber,0,0
;   temperatureSetpointCount,1,1
;   temperatureSetpointLayers,1,1
;   temperatureSetpointTemperatures,200,60
;   temperatureStabilizeAtStartup,1,1
;   temperatureHeatedBed,0,1
;   fanLayers,1,2
;   fanSpeeds,0,100
;   blipFanToFullPower,0
;   adjustSpeedForCooling,1
;   minSpeedLayerTime,15
;   minCoolingSpeedSlowdown,30
;   increaseFanForCooling,0
;   minFanLayerTime,45
;   maxCoolingFanSpeed,100
;   increaseFanForBridging,1
;   bridgingFanSpeed,100
;   use5D,1
;   relativeEdistances,0
;   allowEaxisZeroing,1
;   independentExtruderAxes,0
;   includeM10123,0
;   stickySupport,1
;   applyToolheadOffsets,0
;   gcodeXoffset,0
;   gcodeYoffset,0
;   gcodeZoffset,0
;   overrideMachineDefinition,0
;   machineTypeOverride,0
;   strokeXoverride,200
;   strokeYoverride,200
;   strokeZoverride,200
;   originOffsetXoverride,0
;   originOffsetYoverride,0
;   originOffsetZoverride,0
;   homeXdirOverride,-1
;   homeYdirOverride,-1
;   homeZdirOverride,-1
;   flipXoverride,1
;   flipYoverride,-1
;   flipZoverride,1
;   toolheadOffsets,0,0|0,0|0,0|0,0|0,0|0,0
;   overrideFirmwareConfiguration,0
;   firmwareTypeOverride,RepRap (Marlin/Repetier/Sprinter)
;   GPXconfigOverride,r2
;   baudRateOverride,115200
;   overridePrinterModels,0
;   printerModelsOverride
;   startingGcode,; -- START GCODE --,G21		;set units to millimetres,G90               		;set to absolute positioning,M106 S0           		;set fan speed to zero (turned off),G28                		;home all axis,G92 E0             		;zero the extruded length,G1 Z1 F1000     		;move up slightly,G1 Y60.0 Z1 E7.0 F1000.0	;intro line,G1 Y100.0 E21.5 F1000.0	;continue line,G1 Z5 F1000     		;RF: move up to remove extruded material,G92 E0                 	;zero the extruded length again,; -- end of START GCODE --
;   layerChangeGcode,G4 P1
;   retractionGcode,
;   toolChangeGcode,
;   endingGcode,; -- END GCODE --,M104 S0 T0    	;turn off nozzle heater,M140 S0         	;turn off bed heater,G91                   	;set to relative positioning,G1 E-30 F300   	;retract the filament slightly,G90                	;set to absolute positioning,OCTO600	;Send notifications,G28 X0           	;move to the X-axis origin (Home),G0 Y280 F600   	;bring the bed to the front for easy print removal,M84                	;turn off stepper motors,; -- end of END GCODE --
;   exportFileFormat,gcode
;   celebration,0
;   celebrationSong,Random Song
;   postProcessing,|;{REPLACE "\n; layer 18, Z = " "; layer 21\nG28 Y0 X0\nM300\nM25\nG92 E0\nG28 Y0 X0\n; layer 18 "}|;{REPLACE "\n; layer 21, Z = " "; layer 21\nG28 Y0 X0\nM300\nM25\nG92 E0\nG28 Y0 X0\n; layer 21 "}
;   defaultSpeed,2100
;   outlineUnderspeed,0.5
;   solidInfillUnderspeed,0.8
;   supportUnderspeed,0.75
;   rapidXYspeed,9000
;   rapidZspeed,1002
;   minBridgingArea,50
;   bridgingExtraInflation,0
;   bridgingExtrusionMultiplier,1
;   bridgingSpeedMultiplier,1.02
;   useFixedBridgingAngle,0
;   fixedBridgingAngle,0
;   applyBridgingToPerimeters,0
;   filamentDiameters,1.75|1.75|1.75|1.75|1.75|1.75
;   filamentPricesPerKg,24|46|46|46|46|46
;   filamentDensities,1.25|1.25|1.25|1.25|1.25|1.25
;   useMinPrintHeight,0
;   minPrintHeight,0
;   useMaxPrintHeight,0
;   maxPrintHeight,1
;   useDiaphragm,0
;   diaphragmLayerInterval,20
;   robustSlicing,1
;   mergeAllIntoSolid,0
;   onlyRetractWhenCrossingOutline,1
;   retractBetweenLayers,1
;   useRetractionMinTravel,1
;   retractionMinTravel,1
;   retractWhileWiping,0
;   onlyWipeOutlines,1
;   avoidCrossingOutline,0
;   maxMovementDetourFactor,3
;   toolChangeRetractionDistance,12
;   toolChangeExtraRestartDistance,-0.5
;   toolChangeRetractionSpeed,600
;   externalThinWallType,0
;   internalThinWallType,0
;   thinWallAllowedOverlapPercentage,10
;   singleExtrusionMinLength,1
;   singleExtrusionMinPrintingWidthPercentage,50
;   singleExtrusionMaxPrintingWidthPercentage,200
;   singleExtrusionEndpointExtension,0.2
;   horizontalSizeCompensation,0
G90
M82
M106 S0
M140 S60
M190 S60
M104 S200 T0
M109 S200 T0
; -- START GCODE --
G21		;set units to millimetres
G90               		;set to absolute positioning
M106 S0           		;set fan speed to zero (turned off)
G28                		;home all axis
G92 E0             		;zero the extruded length
G1 Z1 F1000     		;move up slightly
G1 Y60.0 Z1 E7.0 F1000.0	;intro line
G1 Y100.0 E21.5 F1000.0	;continue line
G1 Z5 F1000     		;RF: move up to remove extruded material
G92 E0                 	;zero the extruded length again
; -- end of START GCODE --
; process Process1
; layer 1, Z = 0.240
T0
G92 E0.0000
G1 E-4.5000 F3600
G4 P1
; feature skirt
; tool H0.240 W0.576
G1 Z1.000 F1002
G1 X272.703 Y47.075 F9000
G1 Z0.240 F1002
G1 E0.0000 F3600
G92 E0.0000
G1 X274.469 Y47.214 E0.1018 F840
G1 X274.736 Y47.256 E0.1174
G1 X276.525 Y47.686 E0.2231
G1 X276.782 Y47.769 E0.2386
G1 X278.481 Y48.473 E0.3444
G1 X278.722 Y48.596 E0.3599
G1 X280.291 Y49.557 E0.4656
G1 X280.509 Y49.716 E0.4811
G1 X281.908 Y50.910 E0.5869
G1 X282.099 Y51.102 E0.6024
G1 X283.294 Y52.500 E0.7081
G1 X283.453 Y52.719 E0.7237
G1 X284.414 Y54.287 E0.8294
G1 X284.536 Y54.528 E0.8449
G1 X285.240 Y56.228 E0.9506
G1 X285.324 Y56.485 E0.9662
G1 X285.753 Y58.273 E1.0719
G1 X285.796 Y58.541 E1.0874
G1 X285.935 Y60.307 E1.1893
G1 X285.940 Y60.442 E1.1970
G1 X285.940 Y239.558 E11.4915
G1 X285.935 Y239.693 E11.4992
G1 X285.796 Y241.459 E11.6011
G1 X285.753 Y241.726 E11.6166
G1 X285.324 Y243.515 E11.7223
G1 X285.240 Y243.772 E11.7379
G1 X284.536 Y245.472 E11.8436
G1 X284.414 Y245.713 E11.8591
G1 X283.453 Y247.281 E11.9648
G1 X283.294 Y247.500 E11.9804
G1 X282.099 Y248.898 E12.0861
G1 X281.908 Y249.090 E12.1016
G1 X280.509 Y250.284 E12.2074
G1 X280.291 Y250.443 E12.2229
G1 X278.722 Y251.404 E12.3286
G1 X278.481 Y251.527 E12.3442
G1 X276.782 Y252.231 E12.4499
G1 X276.525 Y252.314 E12.4654
G1 X274.736 Y252.744 E12.5711
G1 X274.469 Y252.786 E12.5867
G1 X272.703 Y252.925 E12.6885
G1 X272.568 Y252.930 E12.6963
G1 X27.432 Y252.930 E26.7851
G1 X27.297 Y252.925 E26.7928
G1 X25.531 Y252.786 E26.8947
G1 X25.264 Y252.744 E26.9102
G1 X23.475 Y252.314 E27.0159
G1 X23.218 Y252.231 E27.0314
G1 X21.519 Y251.527 E27.1372
G1 X21.278 Y251.404 E27.1527
G1 X19.709 Y250.443 E27.2584
G1 X19.491 Y250.284 E27.2740
G1 X18.092 Y249.090 E27.3797
G1 X17.901 Y248.898 E27.3952
G1 X16.706 Y247.500 E27.5009
G1 X16.547 Y247.281 E27.5165
G1 X15.586 Y245.713 E27.6222
G1 X15.464 Y245.472 E27.6377
G1 X14.758 Y243.767 E27.7438
G1 X14.672 Y243.500 E27.7599
G1 X14.239 Y241.649 E27.8692
G1 X14.199 Y241.392 E27.8841
G1 X14.065 Y239.693 E27.9821
G1 X14.060 Y239.558 E27.9898
G1 X14.060 Y60.442 E38.2843
G1 X14.065 Y60.307 E38.2920
G1 X14.204 Y58.541 E38.3938
G1 X14.247 Y58.274 E38.4094
G1 X14.676 Y56.485 E38.5151
G1 X14.760 Y56.228 E38.5306
G1 X15.464 Y54.528 E38.6364
G1 X15.586 Y54.287 E38.6519
G1 X16.547 Y52.719 E38.7576
G1 X16.706 Y52.500 E38.7732
G1 X17.901 Y51.102 E38.8789
G1 X18.092 Y50.910 E38.8944
G1 X19.491 Y49.716 E39.0001
G1 X19.710 Y49.557 E39.0157
G1 X21.278 Y48.596 E39.1214
G1 X21.519 Y48.473 E39.1369
G1 X23.218 Y47.769 E39.2427
G1 X23.475 Y47.686 E39.2582
G1 X25.264 Y47.256 E39.3639
G1 X25.531 Y47.214 E39.3795
G1 X27.297 Y47.075 E39.4813
G1 X27.432 Y47.069 E39.4891
G1 X272.568 Y47.069 E53.5778
G1 X272.703 Y47.075 E53.5856
G92 E0.0000
G1 E-4.5000 F3600
G1 Z1.240 F1002
G1 X21.760 Y251.004 F9000
G1 Z0.240 F1002
G1 E0.0000 F3600
G92 E0.0000
G1 X21.560 Y250.901 E0.0129 F840
G1 X20.030 Y249.964 E0.1161
G1 X19.848 Y249.832 E0.1290
G1 X18.483 Y248.666 E0.2321
G1 X18.324 Y248.507 E0.2450
G1 X17.159 Y247.143 E0.3482
G1 X17.027 Y246.961 E0.3611
G1 X16.089 Y245.431 E0.4642
G1 X15.987 Y245.230 E0.4772
G1 X15.299 Y243.569 E0.5805
G1 X15.227 Y243.346 E0.5940
G1 X14.805 Y241.539 E0.7006
G1 X14.771 Y241.325 E0.7131
G1 X14.640 Y239.659 E0.8091
G1 X14.636 Y239.547 E0.8156
G1 X14.636 Y60.453 E11.1087
G1 X14.640 Y60.341 E11.1152
G1 X14.777 Y58.608 E11.2151
G1 X14.812 Y58.386 E11.2280
G1 X15.231 Y56.641 E11.3311
G1 X15.300 Y56.427 E11.3440
G1 X15.987 Y54.770 E11.4472
G1 X16.089 Y54.569 E11.4601
G1 X17.027 Y53.039 E11.5632
G1 X17.159 Y52.857 E11.5762
G1 X18.324 Y51.493 E11.6793
G1 X18.483 Y51.334 E11.6922
G1 X19.848 Y50.168 E11.7953
G1 X20.030 Y50.036 E11.8083
G1 X21.560 Y49.099 E11.9114
G1 X21.760 Y48.996 E11.9243
G1 X23.418 Y48.310 E12.0274
G1 X23.632 Y48.240 E12.0404
G1 X25.376 Y47.821 E12.1435
G1 X25.599 Y47.786 E12.1564
G1 X27.331 Y47.650 E12.2563
G1 X27.444 Y47.645 E12.2628
G1 X272.556 Y47.645 E26.3503
G1 X272.669 Y47.650 E26.3567
G1 X274.401 Y47.786 E26.4566
G1 X274.623 Y47.821 E26.4695
G1 X276.368 Y48.240 E26.5727
G1 X276.582 Y48.310 E26.5856
G1 X278.240 Y48.996 E26.6887
G1 X278.440 Y49.099 E26.7017
G1 X279.970 Y50.036 E26.8048
G1 X280.152 Y50.168 E26.8177
G1 X281.517 Y51.334 E26.9208
G1 X281.676 Y51.493 E26.9338
G1 X282.841 Y52.857 E27.0369
G1 X282.973 Y53.039 E27.0498
G1 X283.911 Y54.569 E27.1530
G1 X284.013 Y54.770 E27.1659
G1 X284.700 Y56.427 E27.2690
G1 X284.769 Y56.641 E27.2819
G1 X285.188 Y58.386 E27.3851
G1 X285.223 Y58.608 E27.3980
G1 X285.360 Y60.341 E27.4979
G1 X285.364 Y60.453 E27.5043
G1 X285.364 Y239.547 E37.7975
G1 X285.360 Y239.659 E37.8039
G1 X285.223 Y241.392 E37.9038
G1 X285.188 Y241.614 E37.9168
G1 X284.769 Y243.359 E38.0199
G1 X284.700 Y243.573 E38.0328
G1 X284.013 Y245.230 E38.1359
G1 X283.911 Y245.431 E38.1489
G1 X282.973 Y246.961 E38.2520
G1 X282.841 Y247.143 E38.2649
G1 X281.676 Y248.507 E38.3681
G1 X281.517 Y248.666 E38.3810
G1 X280.152 Y249.832 E38.4841
G1 X279.970 Y249.964 E38.4970
G1 X278.440 Y250.901 E38.6002
G1 X278.240 Y251.004 E38.6131
G1 X276.582 Y251.690 E38.7162
G1 X276.368 Y251.760 E38.7292
G1 X274.623 Y252.179 E38.8323
G1 X274.401 Y252.214 E38.8452
G1 X272.669 Y252.350 E38.9451
G1 X272.556 Y252.355 E38.9516
G1 X27.444 Y252.355 E53.0390
G1 X27.331 Y252.350 E53.0455
G1 X25.599 Y252.214 E53.1454
G1 X25.376 Y252.179 E53.1583
G1 X23.632 Y251.760 E53.2614
G1 X23.418 Y251.690 E53.2744
G1 X21.760 Y251.004 E53.3775
G92 E0.0000
G1 E-4.5000 F3600
G1 Z1.240 F1002
G1 X284.623 Y58.498 F9000
G1 Z0.240 F1002
G1 E0.0000 F3600
G92 E0.0000
G1 X284.651 Y58.676 E0.0103 F840
G1 X284.784 Y60.375 E0.1083
G1 X284.788 Y60.465 E0.1134
G1 X284.788 Y239.535 E10.4053
G1 X284.784 Y239.625 E10.4104
G1 X284.651 Y241.324 E10.5084
G1 X284.623 Y241.502 E10.5187
G1 X284.214 Y243.202 E10.6192
G1 X284.159 Y243.373 E10.6296
G1 X283.490 Y244.989 E10.7301
G1 X283.408 Y245.149 E10.7404
G1 X282.494 Y246.640 E10.8409
G1 X282.388 Y246.786 E10.8513
G1 X281.252 Y248.116 E10.9518
G1 X281.125 Y248.243 E10.9621
G1 X279.795 Y249.379 E11.0626
G1 X279.650 Y249.484 E11.0730
G1 X278.159 Y250.398 E11.1735
G1 X277.999 Y250.480 E11.1838
G1 X276.383 Y251.149 E11.2843
G1 X276.212 Y251.205 E11.2947
G1 X274.511 Y251.613 E11.3952
G1 X274.333 Y251.641 E11.4055
G1 X272.635 Y251.775 E11.5035
G1 X272.545 Y251.779 E11.5086
G1 X27.455 Y251.779 E25.5948
G1 X27.365 Y251.775 E25.6000
G1 X25.667 Y251.641 E25.6979
G1 X25.489 Y251.613 E25.7082
G1 X23.788 Y251.205 E25.8087
G1 X23.617 Y251.149 E25.8191
G1 X22.001 Y250.480 E25.9196
G1 X21.841 Y250.398 E25.9299
G1 X20.350 Y249.485 E26.0305
G1 X20.205 Y249.379 E26.0408
G1 X18.875 Y248.243 E26.1413
G1 X18.747 Y248.116 E26.1516
G1 X17.612 Y246.786 E26.2522
G1 X17.506 Y246.640 E26.2625
G1 X16.592 Y245.149 E26.3630
G1 X16.511 Y244.989 E26.3733
G1 X15.840 Y243.370 E26.4741
G1 X15.783 Y243.192 E26.4848
G1 X15.371 Y241.429 E26.5889
G1 X15.344 Y241.258 E26.5988
G1 X15.216 Y239.625 E26.6929
G1 X15.212 Y239.535 E26.6981
G1 X15.212 Y60.465 E36.9899
G1 X15.216 Y60.375 E36.9951
G1 X15.349 Y58.676 E37.0930
G1 X15.377 Y58.498 E37.1034
G1 X15.786 Y56.798 E37.2039
G1 X15.841 Y56.627 E37.2142
G1 X16.511 Y55.011 E37.3147
G1 X16.592 Y54.851 E37.3251
G1 X17.506 Y53.360 E37.4256
G1 X17.612 Y53.214 E37.4359
G1 X18.747 Y51.884 E37.5365
G1 X18.875 Y51.757 E37.5468
G1 X20.205 Y50.621 E37.6473
G1 X20.350 Y50.515 E37.6576
G1 X21.841 Y49.602 E37.7582
G1 X22.001 Y49.520 E37.7685
G1 X23.617 Y48.851 E37.8690
G1 X23.788 Y48.795 E37.8793
G1 X25.489 Y48.387 E37.9799
G1 X25.667 Y48.359 E37.9902
G1 X27.365 Y48.225 E38.0881
G1 X27.455 Y48.221 E38.0933
G1 X272.545 Y48.221 E52.1795
G1 X272.635 Y48.225 E52.1846
G1 X274.333 Y48.359 E52.2826
G1 X274.511 Y48.387 E52.2929
G1 X276.212 Y48.795 E52.3934
G1 X276.383 Y48.851 E52.4038
G1 X277.999 Y49.520 E52.5043
G1 X278.159 Y49.602 E52.5146
G1 X279.650 Y50.515 E52.6151
G1 X279.795 Y50.621 E52.6255
G1 X281.125 Y51.757 E52.7260
G1 X281.252 Y51.884 E52.7363
G1 X282.388 Y53.214 E52.8368
G1 X282.494 Y53.360 E52.8472
G1 X283.408 Y54.851 E52.9477
G1 X283.490 Y55.011 E52.9580
G1 X284.159 Y56.627 E53.0585
G1 X284.214 Y56.798 E53.0689
G1 X284.623 Y58.498 E53.1694
G92 E0.0000
G1 E-4.5000 F3600
; feature inner perimeter
G1 Z1.240 F1002
G1 X19.877 Y56.625 F9000
G1 Z0.240 F1002
G1 E0.0000 F3600
G92 E0.0000
G1 X20.578 Y55.481 E0.0772 F630
G1 X21.450 Y54.460 E0.1543
G1 X22.471 Y53.588 E0.2315
G1 X23.616 Y52.886 E0.3086
G1 X24.856 Y52.373 E0.3858
G1 X26.162 Y52.059 E0.4630
G1 X27.556 Y51.949 E0.5434
G1 X272.444 Y51.949 E14.6179
G1 X273.838 Y52.059 E14.6983
G1 X275.144 Y52.373 E14.7755
G1 X276.384 Y52.886 E14.8526
G1 X277.529 Y53.588 E14.9298
G1 X278.550 Y54.460 E15.0069
G1 X279.422 Y55.481 E15.0841
G1 X280.123 Y56.625 E15.1613
G1 X280.637 Y57.866 E15.2384
G1 X280.950 Y59.171 E15.3156
G1 X281.060 Y60.566 E15.3960
G1 X281.060 Y239.434 E25.6762
G1 X280.950 Y240.829 E25.7566
G1 X280.637 Y242.134 E25.8337
G1 X280.123 Y243.375 E25.9109
G1 X279.422 Y244.519 E25.9881
G1 X278.550 Y245.540 E26.0652
G1 X277.529 Y246.412 E26.1424
G1 X276.384 Y247.114 E26.2195
