; G-Code generated by Simplify3D(R) Version 4.1.2
; Apr 5, 2021 at 7:21:43 PM
; Settings Summary
;   processName,Process1
;   applyToModels,CP-BO cale PCF8574 v2,CP-BO cale PCF8574 v2(2),CP-BO cale PCF8574 v2(3)
;   profileName,PLA (modified)
;   profileVersion,2020-12-09 13:37:22
;   baseProfile,Default (modified)
;   printMaterial,PLA
;   printQuality,Medium
;   printExtruders,
;   extruderName,Primary Extruder
;   extruderToolheadNumber,0
;   extruderDiameter,0.4
;   extruderAutoWidth,1
;   extruderWidth,0.48
;   extrusionMultiplier,1
;   extruderUseRetract,1
;   extruderRetractionDistance,4.5
;   extruderExtraRestartDistance,0
;   extruderRetractionZLift,1
;   extruderRetractionSpeed,3600
;   extruderUseCoasting,1
;   extruderCoastingDistance,0.2
;   extruderUseWipe,0
;   extruderWipeDistance,5
;   primaryExtruder,0
;   layerHeight,0.2
;   topSolidLayers,3
;   bottomSolidLayers,3
;   perimeterOutlines,3
;   printPerimetersInsideOut,1
;   startPointOption,1
;   startPointOriginX,0
;   startPointOriginY,0
;   sequentialIslands,0
;   spiralVaseMode,0
;   firstLayerHeightPercentage,120
;   firstLayerWidthPercentage,120
;   firstLayerUnderspeed,0.4
;   useRaft,0
;   raftExtruder,0
;   raftTopLayers,2
;   raftBaseLayers,2
;   raftOffset,3
;   raftSeparationDistance,0.14
;   raftTopInfill,80
;   aboveRaftSpeedMultiplier,0.3
;   useSkirt,1
;   skirtExtruder,0
;   skirtLayers,1
;   skirtOutlines,3
;   skirtOffset,2
;   usePrimePillar,0
;   primePillarExtruder,999
;   primePillarWidth,12
;   primePillarLocation,7
;   primePillarSpeedMultiplier,0.95
;   useOozeShield,0
;   oozeShieldExtruder,999
;   oozeShieldOffset,2
;   oozeShieldOutlines,1
;   oozeShieldSidewallShape,1
;   oozeShieldSidewallAngle,30
;   oozeShieldSpeedMultiplier,0.96
;   infillExtruder,0
;   internalInfillPattern,Fast Honeycomb
;   externalInfillPattern,Rectilinear
;   infillPercentage,15
;   outlineOverlapPercentage,40
;   infillExtrusionWidthPercentage,100
;   minInfillLength,5
;   infillLayerInterval,1
;   internalInfillAngles,0
;   overlapInternalInfillAngles,0
;   externalInfillAngles,0
;   generateSupport,1
;   supportExtruder,0
;   supportInfillPercentage,20
;   supportExtraInflation,0
;   supportBaseLayers,0
;   denseSupportExtruder,0
;   denseSupportLayers,0
;   denseSupportInfillPercentage,70
;   supportLayerInterval,1
;   supportHorizontalPartOffset,0.4
;   supportUpperSeparationLayers,1
;   supportLowerSeparationLayers,1
;   supportType,0
;   supportGridSpacing,2
;   maxOverhangAngle,55
;   supportAngles,45
;   temperatureName,Primary Extruder,BED
;   temperatureNumber,0,0
;   temperatureSetpointCount,1,1
;   temperatureSetpointLayers,1,1
;   temperatureSetpointTemperatures,200,60
;   temperatureStabilizeAtStartup,1,1
;   temperatureHeatedBed,0,1
;   fanLayers,1,2
;   fanSpeeds,0,100
;   blipFanToFullPower,0
;   adjustSpeedForCooling,1
;   minSpeedLayerTime,15
;   minCoolingSpeedSlowdown,30
;   increaseFanForCooling,0
;   minFanLayerTime,45
;   maxCoolingFanSpeed,100
;   increaseFanForBridging,1
;   bridgingFanSpeed,100
;   use5D,1
;   relativeEdistances,0
;   allowEaxisZeroing,1
;   independentExtruderAxes,0
;   includeM10123,0
;   stickySupport,1
;   applyToolheadOffsets,0
;   gcodeXoffset,0
;   gcodeYoffset,0
;   gcodeZoffset,0
;   overrideMachineDefinition,0
;   machineTypeOverride,0
;   strokeXoverride,200
;   strokeYoverride,200
;   strokeZoverride,200
;   originOffsetXoverride,0
;   originOffsetYoverride,0
;   originOffsetZoverride,0
;   homeXdirOverride,-1
;   homeYdirOverride,-1
;   homeZdirOverride,-1
;   flipXoverride,1
;   flipYoverride,-1
;   flipZoverride,1
;   toolheadOffsets,0,0|0,0|0,0|0,0|0,0|0,0
;   overrideFirmwareConfiguration,0
;   firmwareTypeOverride,RepRap (Marlin/Repetier/Sprinter)
;   GPXconfigOverride,r2
;   baudRateOverride,115200
;   overridePrinterModels,0
;   printerModelsOverride
;   startingGcode,; -- START GCODE --,G21		;set units to millimetres,G90               		;set to absolute positioning,M106 S0           		;set fan speed to zero (turned off),G28                		;home all axis,G92 E0             		;zero the extruded length,G1 Z1 F1000     		;move up slightly,G1 Y60.0 Z1 E7.0 F1000.0	;intro line,G1 Y100.0 E21.5 F1000.0	;continue line,G1 Z5 F1000     		;RF: move up to remove extruded material,G92 E0                 	;zero the extruded length again,; -- end of START GCODE --
;   layerChangeGcode,G4 P1
;   retractionGcode,
;   toolChangeGcode,
;   endingGcode,; -- END GCODE --,M104 S0 T0    	;turn off nozzle heater,M140 S0         	;turn off bed heater,G91                   	;set to relative positioning,G1 E-30 F300   	;retract the filament slightly,G90                	;set to absolute positioning,OCTO600	;Send notifications,G28 X0           	;move to the X-axis origin (Home),G0 Y280 F600   	;bring the bed to the front for easy print removal,M84                	;turn off stepper motors,; -- end of END GCODE --
;   exportFileFormat,gcode
;   celebration,0
;   celebrationSong,Random Song
;   postProcessing,|;{REPLACE "\n; layer 18, Z = " "; layer 21\nG28 Y0 X0\nM300\nM25\nG92 E0\nG28 Y0 X0\n; layer 18 "}|;{REPLACE "\n; layer 21, Z = " "; layer 21\nG28 Y0 X0\nM300\nM25\nG92 E0\nG28 Y0 X0\n; layer 21 "}
;   defaultSpeed,2100
;   outlineUnderspeed,0.5
;   solidInfillUnderspeed,0.8
;   supportUnderspeed,0.75
;   rapidXYspeed,9000
;   rapidZspeed,1002
;   minBridgingArea,50
;   bridgingExtraInflation,0
;   bridgingExtrusionMultiplier,1
;   bridgingSpeedMultiplier,1.02
;   useFixedBridgingAngle,0
;   fixedBridgingAngle,0
;   applyBridgingToPerimeters,0
;   filamentDiameters,1.75|1.75|1.75|1.75|1.75|1.75
;   filamentPricesPerKg,24|46|46|46|46|46
;   filamentDensities,1.25|1.25|1.25|1.25|1.25|1.25
;   useMinPrintHeight,0
;   minPrintHeight,0
;   useMaxPrintHeight,0
;   maxPrintHeight,1
;   useDiaphragm,0
;   diaphragmLayerInterval,20
;   robustSlicing,1
;   mergeAllIntoSolid,0
;   onlyRetractWhenCrossingOutline,1
;   retractBetweenLayers,1
;   useRetractionMinTravel,1
;   retractionMinTravel,1
;   retractWhileWiping,0
;   onlyWipeOutlines,1
;   avoidCrossingOutline,0
;   maxMovementDetourFactor,3
;   toolChangeRetractionDistance,12
;   toolChangeExtraRestartDistance,-0.5
;   toolChangeRetractionSpeed,600
;   externalThinWallType,0
;   internalThinWallType,0
;   thinWallAllowedOverlapPercentage,10
;   singleExtrusionMinLength,1
;   singleExtrusionMinPrintingWidthPercentage,50
;   singleExtrusionMaxPrintingWidthPercentage,200
;   singleExtrusionEndpointExtension,0.2
;   horizontalSizeCompensation,0
G90
M82
M106 S0
M140 S60
M190 S60
M104 S200 T0
M109 S200 T0
; -- START GCODE --
G21		;set units to millimetres
G90               		;set to absolute positioning
M106 S0           		;set fan speed to zero (turned off)
G28                		;home all axis
G92 E0             		;zero the extruded length
G1 Z1 F1000     		;move up slightly
G1 Y60.0 Z1 E7.0 F1000.0	;intro line
G1 Y100.0 E21.5 F1000.0	;continue line
G1 Z5 F1000     		;RF: move up to remove extruded material
G92 E0                 	;zero the extruded length again
; -- end of START GCODE --
; process Process1
; layer 1, Z = 0.240
T0
G92 E0.0000
G1 E-4.5000 F3600
G4 P1
; feature skirt
; tool H0.240 W0.576
G1 Z1.000 F1002
G1 X149.788 Y133.552 F9000
G1 Z0.240 F1002
G1 E0.0000 F3600
G92 E0.0000
G1 X149.788 Y146.248 E0.7297 F840
G1 X148.448 Y147.588 E0.8386
G1 X145.588 Y147.588 E1.0029
G1 X145.588 Y148.448 E1.0524
G1 X144.248 Y149.788 E1.1613
G1 X135.752 Y149.788 E1.6496
G1 X134.412 Y148.448 E1.7585
G1 X134.412 Y147.588 E1.8079
G1 X131.552 Y147.588 E1.9723
G1 X130.212 Y146.248 E2.0812
G1 X130.212 Y133.552 E2.8109
G1 X131.552 Y132.212 E2.9198
G1 X148.448 Y132.212 E3.8908
G1 X149.788 Y133.552 E3.9998
G92 E0.0000
G1 E-4.5000 F3600
G1 Z1.240 F1002
G1 X154.412 Y148.448 F9000
G1 Z0.240 F1002
G1 E0.0000 F3600
G92 E0.0000
G1 X154.412 Y147.588 E0.0494 F840
G1 X151.552 Y147.588 E0.2138
G1 X150.212 Y146.248 E0.3227
G1 X150.212 Y133.552 E1.0524
G1 X151.552 Y132.212 E1.1613
G1 X168.448 Y132.212 E2.1323
G1 X169.788 Y133.552 E2.2413
G1 X169.788 Y146.248 E2.9709
G1 X168.448 Y147.588 E3.0799
G1 X165.588 Y147.588 E3.2442
G1 X165.588 Y148.448 E3.2936
G1 X164.248 Y149.788 E3.4026
G1 X155.752 Y149.788 E3.8908
G1 X154.412 Y148.448 E3.9998
G92 E0.0000
G1 E-4.5000 F3600
G1 Z1.240 F1002
G1 X166.740 Y148.925 F9000
G1 Z0.240 F1002
G1 E0.0000 F3600
G92 E0.0000
G1 X164.725 Y150.940 E0.1638 F840
G1 X155.275 Y150.940 E0.7069
G1 X153.260 Y148.925 E0.8707
G1 X153.260 Y148.740 E0.8813
G1 X151.075 Y148.740 E1.0069
G1 X150.000 Y147.665 E1.0943
G1 X148.925 Y148.740 E1.1817
G1 X146.740 Y148.740 E1.3072
G1 X146.740 Y148.925 E1.3179
G1 X146.605 Y149.060 E1.3288
G1 X148.925 Y149.060 E1.4622
G1 X150.940 Y151.075 E1.6260
G1 X150.940 Y164.725 E2.4105
G1 X148.925 Y166.740 E2.5743
G1 X146.740 Y166.740 E2.6998
G1 X146.740 Y166.925 E2.7105
G1 X144.725 Y168.940 E2.8742
G1 X135.275 Y168.940 E3.4174
G1 X133.260 Y166.925 E3.5811
G1 X133.260 Y166.740 E3.5918
G1 X131.075 Y166.740 E3.7173
G1 X129.060 Y164.725 E3.8811
G1 X129.060 Y151.075 E4.6656
G1 X131.075 Y149.060 E4.8294
G1 X133.395 Y149.060 E4.9628
G1 X133.260 Y148.925 E4.9737
G1 X133.260 Y148.740 E4.9844
G1 X131.075 Y148.740 E5.1099
G1 X129.060 Y146.725 E5.2737
G1 X129.060 Y133.075 E6.0582
G1 X131.075 Y131.060 E6.2220
G1 X148.925 Y131.060 E7.2479
G1 X150.000 Y132.135 E7.3353
G1 X151.075 Y131.060 E7.4227
G1 X168.925 Y131.060 E8.4486
G1 X170.940 Y133.075 E8.6123
G1 X170.940 Y146.725 E9.3969
G1 X168.925 Y148.740 E9.5606
G1 X166.740 Y148.740 E9.6862
G1 X166.740 Y148.925 E9.6968
G92 E0.0000
G1 E-4.5000 F3600
G1 Z1.240 F1002
G1 X134.786 Y149.636 F9000
G1 Z0.240 F1002
G1 E0.0000 F3600
G92 E0.0000
G1 X133.836 Y148.686 E0.0772 F840
G1 X133.836 Y148.164 E0.1072
G1 X131.314 Y148.164 E0.2522
G1 X129.636 Y146.486 E0.3885
G1 X129.636 Y133.314 E1.1456
G1 X131.314 Y131.636 E1.2820
G1 X148.686 Y131.636 E2.2804
G1 X150.000 Y132.950 E2.3872
G1 X151.314 Y131.636 E2.4940
G1 X168.686 Y131.636 E3.4925
G1 X170.364 Y133.314 E3.6288
G1 X170.364 Y146.486 E4.3859
G1 X168.686 Y148.164 E4.5223
G1 X166.164 Y148.164 E4.6672
G1 X166.164 Y148.686 E4.6972
G1 X164.486 Y150.364 E4.8336
G1 X155.514 Y150.364 E5.3493
G1 X153.836 Y148.686 E5.4857
G1 X153.836 Y148.164 E5.5157
G1 X151.314 Y148.164 E5.6606
G1 X150.000 Y146.850 E5.7674
G1 X148.686 Y148.164 E5.8742
G1 X146.164 Y148.164 E6.0192
G1 X146.164 Y148.686 E6.0492
G1 X145.214 Y149.636 E6.1264
G1 X148.686 Y149.636 E6.3259
G1 X150.364 Y151.314 E6.4623
G1 X150.364 Y164.486 E7.2194
G1 X148.686 Y166.164 E7.3557
G1 X146.164 Y166.164 E7.5007
G1 X146.164 Y166.686 E7.5307
G1 X144.486 Y168.364 E7.6671
G1 X135.514 Y168.364 E8.1828
G1 X133.836 Y166.686 E8.3191
G1 X133.836 Y166.164 E8.3491
G1 X131.314 Y166.164 E8.4941
G1 X129.636 Y164.486 E8.6305
G1 X129.636 Y151.314 E9.3875
G1 X131.314 Y149.636 E9.5239
G1 X134.786 Y149.636 E9.7235
G92 E0.0000
G1 E-4.5000 F3600
G1 Z1.240 F1002
G1 X134.412 Y165.588 F9000
G1 Z0.240 F1002
G1 E0.0000 F3600
G92 E0.0000
G1 X131.552 Y165.588 E0.1644 F840
G1 X130.212 Y164.248 E0.2733
G1 X130.212 Y151.552 E1.0029
G1 X131.552 Y150.212 E1.1119
G1 X148.448 Y150.212 E2.0829
G1 X149.788 Y151.552 E2.1919
G1 X149.788 Y164.248 E2.9215
G1 X148.448 Y165.588 E3.0305
G1 X145.588 Y165.588 E3.1948
G1 X145.588 Y166.448 E3.2442
G1 X144.248 Y167.788 E3.3532
G1 X135.752 Y167.788 E3.8414
G1 X134.412 Y166.448 E3.9504
G1 X134.412 Y165.588 E3.9998
G92 E0.0000
G1 E-4.5000 F3600
; feature inner perimeter
G1 Z1.240 F1002
G1 X139.809 Y141.963 F9000
G1 Z0.240 F1002
G1 E0.0000 F3600
G92 E0.0000
G1 X139.430 Y142.011 E0.0220 F630
G1 X139.060 Y142.106 E0.0439
G1 X138.704 Y142.247 E0.0659
G1 X138.370 Y142.431 E0.0878
G1 X138.060 Y142.655 E0.1098
G1 X137.782 Y142.917 E0.1318
G1 X137.538 Y143.211 E0.1537
G1 X137.334 Y143.534 E0.1757
G1 X137.180 Y143.860 E0.1964
G1 X133.940 Y143.860 E0.3826
G1 X133.940 Y135.940 E0.8378
G1 X146.060 Y135.940 E1.5344
G1 X146.060 Y143.860 E1.9896
G1 X142.820 Y143.860 E2.1758
G1 X142.666 Y143.534 E2.1965
G1 X142.462 Y143.211 E2.2185
G1 X142.218 Y142.917 E2.2404
G1 X141.940 Y142.655 E2.2624
G1 X141.630 Y142.431 E2.2844
G1 X141.296 Y142.247 E2.3063
G1 X140.940 Y142.106 E2.3283
G1 X140.570 Y142.011 E2.3502
G1 X140.191 Y141.963 E2.3722
G1 X140.009 Y141.963 E2.3827
G1 X139.809 Y141.963 F630
G1 X139.845 Y142.539 F9000
G92 E0.0000
G1 X139.538 Y142.578 E0.0178 F630
G1 X139.238 Y142.655 E0.0356
G1 X138.950 Y142.769 E0.0534
G1 X138.679 Y142.918 E0.0712
G1 X138.428 Y143.100 E0.0890
G1 X138.203 Y143.312 E0.1068
G1 X138.005 Y143.551 E0.1246
G1 X137.839 Y143.812 E0.1424
G1 X137.706 Y144.095 E0.1603
G1 X137.609 Y144.402 E0.1788
G1 X137.564 Y144.637 E0.1926
G1 X137.564 Y144.436 E0.2042
G1 X133.364 Y144.436 E0.4456
G1 X133.364 Y135.364 E0.9670
G1 X146.636 Y135.364 E1.7297
G1 X146.636 Y144.436 E2.2511
G1 X142.436 Y144.436 E2.4925
G1 X142.436 Y144.637 E2.5041
G1 X142.388 Y144.387 E2.5187
G1 X142.293 Y144.092 E2.5365
G1 X142.161 Y143.812 E2.5543
G1 X141.995 Y143.551 E2.5721
G1 X141.797 Y143.312 E2.5899
G1 X141.572 Y143.100 E2.6077
G1 X141.321 Y142.918 E2.6255
G1 X141.050 Y142.769 E2.6433
G1 X140.762 Y142.655 E2.6611
G1 X140.462 Y142.578 E2.6789
G1 X140.155 Y142.539 E2.6967
G1 X140.045 Y142.539 E2.7030
G1 X139.845 Y142.539 F630
G1 X137.564 Y145.363 F9000
G92 E0.0000
G1 X137.612 Y145.613 E0.0146 F630
G1 X137.707 Y145.908 E0.0324
G1 X137.839 Y146.188 E0.0502
G1 X138.005 Y146.449 E0.0680
G1 X138.160 Y146.636 E0.0820
G1 X137.564 Y146.636 E0.1162
G1 X137.564 Y145.563 E0.1779
G1 X137.564 Y145.363 F630
G92 E0.0000
G1 E-4.5000 F3600
G1 Z1.240 F1002
G1 X141.840 Y146.636 F9000
G1 Z0.240 F1002
G1 E0.0000 F3600
G92 E0.0000
G1 X141.995 Y146.449 E0.0139 F630
G1 X142.161 Y146.188 E0.0317
G1 X142.293 Y145.908 E0.0495
G1 X142.388 Y145.613 E0.0673
G1 X142.436 Y145.363 E0.0820
G1 X142.436 Y146.636 E0.1551
G1 X142.040 Y146.636 E0.1779
G1 X141.840 Y146.636 F630
; feature outer perimeter
G1 X143.012 Y147.212 F9000
G92 E0.0000
G1 X136.988 Y147.212 E0.3462 F420
G1 X136.988 Y145.012 E0.4727
G1 X132.788 Y145.012 E0.7141
G1 X132.788 Y134.788 E1.3017
G1 X147.212 Y134.788 E2.1307
G1 X147.212 Y145.012 E2.7183
G1 X143.012 Y145.012 E2.9597
G1 X143.012 Y147.012 E3.0746
G1 X143.012 Y147.212 F420
G1 X141.528 Y146.110 F9000
G92 E0.0000
G1 X141.655 Y145.910 E0.0136 F420
G1 X141.756 Y145.695 E0.0273
G1 X141.829 Y145.470 E0.0409
G1 X141.874 Y145.237 E0.0545
G1 X141.889 Y145.000 E0.0682
G1 X141.874 Y144.763 E0.0818
G1 X141.829 Y144.530 E0.0954
G1 X141.756 Y144.305 E0.1090
G1 X141.655 Y144.090 E0.1227
G1 X141.528 Y143.890 E0.1363
G1 X141.377 Y143.707 E0.1499
G1 X141.204 Y143.545 E0.1636
G1 X141.012 Y143.405 E0.1772
G1 X140.804 Y143.291 E0.1908
G1 X140.584 Y143.204 E0.2045
G1 X140.354 Y143.145 E0.2181
G1 X140.119 Y143.115 E0.2317
G1 X139.881 Y143.115 E0.2454
G1 X139.646 Y143.145 E0.2590
G1 X139.416 Y143.204 E0.2726
G1 X139.196 Y143.291 E0.2862
G1 X138.988 Y143.405 E0.2999
G1 X138.796 Y143.545 E0.3135
G1 X138.623 Y143.707 E0.3271
G1 X138.472 Y143.890 E0.3408
G1 X138.345 Y144.090 E0.3544
G1 X138.244 Y144.306 E0.3681
G1 X138.168 Y144.543 E0.3824
G1 X138.126 Y144.763 E0.3953
G1 X138.111 Y145.000 E0.4089
G1 X138.126 Y145.237 E0.4226
G1 X138.171 Y145.470 E0.4362
G1 X138.244 Y145.695 E0.4498
G1 X138.345 Y145.910 E0.4634
G1 X138.472 Y146.110 E0.4771
G1 X138.623 Y146.293 E0.4907
G1 X138.796 Y146.455 E0.5043
G1 X138.988 Y146.595 E0.5180
G1 X139.196 Y146.709 E0.5316
G1 X139.416 Y146.796 E0.5452
G1 X139.646 Y146.855 E0.5589
G1 X139.881 Y146.885 E0.5725
G1 X140.119 Y146.885 E0.5861
G1 X140.354 Y146.855 E0.5998
G1 X140.584 Y146.796 E0.6134
G1 X140.804 Y146.709 E0.6270
G1 X141.012 Y146.595 E0.6406
G1 X141.204 Y146.455 E0.6543
G1 X141.377 Y146.293 E0.6679
G1 X141.400 Y146.264 E0.6700
G1 X141.528 Y146.110 F420
; feature solid layer
G1 X142.793 Y143.088 F9000
G92 E0.0000
G1 X145.714 Y143.088 E0.1679 F672
G1 X145.714 Y142.512 E0.2010
G1 X142.492 Y142.512 E0.3862
G1 X142.292 Y142.512 F672
G1 X134.286 Y143.088 F9000
G92 E0.0000
G1 X137.207 Y143.088 E0.1679 F672
G1 X137.258 Y143.008 E0.1734
G1 X137.529 Y142.680 E0.1978
G1 X137.708 Y142.512 E0.2119
G1 X134.286 Y142.512 E0.4087
G1 X134.286 Y141.936 E0.4418
