; G-Code generated by Simplify3D(R) Version 4.1.2
; Apr 5, 2021 at 5:31:17 PM
; Settings Summary
;   processName,Process1
;   applyToModels,CP-BO cale encodeur v1,Test couvercle 2 v3
;   profileName,PLA (modified)
;   profileVersion,2020-12-09 13:37:22
;   baseProfile,Default (modified)
;   printMaterial,PLA
;   printQuality,Medium
;   printExtruders,
;   extruderName,Primary Extruder
;   extruderToolheadNumber,0
;   extruderDiameter,0.4
;   extruderAutoWidth,1
;   extruderWidth,0.48
;   extrusionMultiplier,1
;   extruderUseRetract,1
;   extruderRetractionDistance,4.5
;   extruderExtraRestartDistance,0
;   extruderRetractionZLift,1
;   extruderRetractionSpeed,3600
;   extruderUseCoasting,1
;   extruderCoastingDistance,0.2
;   extruderUseWipe,0
;   extruderWipeDistance,5
;   primaryExtruder,0
;   layerHeight,0.2
;   topSolidLayers,3
;   bottomSolidLayers,3
;   perimeterOutlines,3
;   printPerimetersInsideOut,1
;   startPointOption,1
;   startPointOriginX,0
;   startPointOriginY,0
;   sequentialIslands,0
;   spiralVaseMode,0
;   firstLayerHeightPercentage,120
;   firstLayerWidthPercentage,120
;   firstLayerUnderspeed,0.4
;   useRaft,0
;   raftExtruder,0
;   raftTopLayers,2
;   raftBaseLayers,2
;   raftOffset,3
;   raftSeparationDistance,0.14
;   raftTopInfill,80
;   aboveRaftSpeedMultiplier,0.3
;   useSkirt,1
;   skirtExtruder,0
;   skirtLayers,1
;   skirtOutlines,3
;   skirtOffset,2
;   usePrimePillar,0
;   primePillarExtruder,999
;   primePillarWidth,12
;   primePillarLocation,7
;   primePillarSpeedMultiplier,0.95
;   useOozeShield,0
;   oozeShieldExtruder,999
;   oozeShieldOffset,2
;   oozeShieldOutlines,1
;   oozeShieldSidewallShape,1
;   oozeShieldSidewallAngle,30
;   oozeShieldSpeedMultiplier,0.96
;   infillExtruder,0
;   internalInfillPattern,Fast Honeycomb
;   externalInfillPattern,Rectilinear
;   infillPercentage,15
;   outlineOverlapPercentage,40
;   infillExtrusionWidthPercentage,100
;   minInfillLength,5
;   infillLayerInterval,1
;   internalInfillAngles,0
;   overlapInternalInfillAngles,0
;   externalInfillAngles,0
;   generateSupport,1
;   supportExtruder,0
;   supportInfillPercentage,20
;   supportExtraInflation,0
;   supportBaseLayers,0
;   denseSupportExtruder,0
;   denseSupportLayers,0
;   denseSupportInfillPercentage,70
;   supportLayerInterval,1
;   supportHorizontalPartOffset,0.4
;   supportUpperSeparationLayers,1
;   supportLowerSeparationLayers,1
;   supportType,0
;   supportGridSpacing,2
;   maxOverhangAngle,55
;   supportAngles,45
;   temperatureName,Primary Extruder,BED
;   temperatureNumber,0,0
;   temperatureSetpointCount,1,1
;   temperatureSetpointLayers,1,1
;   temperatureSetpointTemperatures,200,60
;   temperatureStabilizeAtStartup,1,1
;   temperatureHeatedBed,0,1
;   fanLayers,1,2
;   fanSpeeds,0,100
;   blipFanToFullPower,0
;   adjustSpeedForCooling,1
;   minSpeedLayerTime,15
;   minCoolingSpeedSlowdown,30
;   increaseFanForCooling,0
;   minFanLayerTime,45
;   maxCoolingFanSpeed,100
;   increaseFanForBridging,1
;   bridgingFanSpeed,100
;   use5D,1
;   relativeEdistances,0
;   allowEaxisZeroing,1
;   independentExtruderAxes,0
;   includeM10123,0
;   stickySupport,1
;   applyToolheadOffsets,0
;   gcodeXoffset,0
;   gcodeYoffset,0
;   gcodeZoffset,0
;   overrideMachineDefinition,0
;   machineTypeOverride,0
;   strokeXoverride,200
;   strokeYoverride,200
;   strokeZoverride,200
;   originOffsetXoverride,0
;   originOffsetYoverride,0
;   originOffsetZoverride,0
;   homeXdirOverride,-1
;   homeYdirOverride,-1
;   homeZdirOverride,-1
;   flipXoverride,1
;   flipYoverride,-1
;   flipZoverride,1
;   toolheadOffsets,0,0|0,0|0,0|0,0|0,0|0,0
;   overrideFirmwareConfiguration,0
;   firmwareTypeOverride,RepRap (Marlin/Repetier/Sprinter)
;   GPXconfigOverride,r2
;   baudRateOverride,115200
;   overridePrinterModels,0
;   printerModelsOverride
;   startingGcode,; -- START GCODE --,G21		;set units to millimetres,G90               		;set to absolute positioning,M106 S0           		;set fan speed to zero (turned off),G28                		;home all axis,G92 E0             		;zero the extruded length,G1 Z1 F1000     		;move up slightly,G1 Y60.0 Z1 E7.0 F1000.0	;intro line,G1 Y100.0 E21.5 F1000.0	;continue line,G1 Z5 F1000     		;RF: move up to remove extruded material,G92 E0                 	;zero the extruded length again,; -- end of START GCODE --
;   layerChangeGcode,G4 P1
;   retractionGcode,
;   toolChangeGcode,
;   endingGcode,; -- END GCODE --,M104 S0 T0    	;turn off nozzle heater,M140 S0         	;turn off bed heater,G91                   	;set to relative positioning,G1 E-30 F300   	;retract the filament slightly,G90                	;set to absolute positioning,OCTO600	;Send notifications,G28 X0           	;move to the X-axis origin (Home),G0 Y280 F600   	;bring the bed to the front for easy print removal,M84                	;turn off stepper motors,; -- end of END GCODE --
;   exportFileFormat,gcode
;   celebration,0
;   celebrationSong,Random Song
;   postProcessing,|;{REPLACE "\n; layer 18, Z = " "; layer 21\nG28 Y0 X0\nM300\nM25\nG92 E0\nG28 Y0 X0\n; layer 18 "}|;{REPLACE "\n; layer 21, Z = " "; layer 21\nG28 Y0 X0\nM300\nM25\nG92 E0\nG28 Y0 X0\n; layer 21 "}
;   defaultSpeed,2100
;   outlineUnderspeed,0.5
;   solidInfillUnderspeed,0.8
;   supportUnderspeed,0.75
;   rapidXYspeed,9000
;   rapidZspeed,1002
;   minBridgingArea,50
;   bridgingExtraInflation,0
;   bridgingExtrusionMultiplier,1
;   bridgingSpeedMultiplier,1.02
;   useFixedBridgingAngle,0
;   fixedBridgingAngle,0
;   applyBridgingToPerimeters,0
;   filamentDiameters,1.75|1.75|1.75|1.75|1.75|1.75
;   filamentPricesPerKg,24|46|46|46|46|46
;   filamentDensities,1.25|1.25|1.25|1.25|1.25|1.25
;   useMinPrintHeight,0
;   minPrintHeight,0
;   useMaxPrintHeight,0
;   maxPrintHeight,1
;   useDiaphragm,0
;   diaphragmLayerInterval,20
;   robustSlicing,1
;   mergeAllIntoSolid,0
;   onlyRetractWhenCrossingOutline,1
;   retractBetweenLayers,1
;   useRetractionMinTravel,1
;   retractionMinTravel,1
;   retractWhileWiping,0
;   onlyWipeOutlines,1
;   avoidCrossingOutline,0
;   maxMovementDetourFactor,3
;   toolChangeRetractionDistance,12
;   toolChangeExtraRestartDistance,-0.5
;   toolChangeRetractionSpeed,600
;   externalThinWallType,0
;   internalThinWallType,0
;   thinWallAllowedOverlapPercentage,10
;   singleExtrusionMinLength,1
;   singleExtrusionMinPrintingWidthPercentage,50
;   singleExtrusionMaxPrintingWidthPercentage,200
;   singleExtrusionEndpointExtension,0.2
;   horizontalSizeCompensation,0
G90
M82
M106 S0
M140 S60
M190 S60
M104 S200 T0
M109 S200 T0
; -- START GCODE --
G21		;set units to millimetres
G90               		;set to absolute positioning
M106 S0           		;set fan speed to zero (turned off)
G28                		;home all axis
G92 E0             		;zero the extruded length
G1 Z1 F1000     		;move up slightly
G1 Y60.0 Z1 E7.0 F1000.0	;intro line
G1 Y100.0 E21.5 F1000.0	;continue line
G1 Z5 F1000     		;RF: move up to remove extruded material
G92 E0                 	;zero the extruded length again
; -- end of START GCODE --
; process Process1
; layer 1, Z = 0.240
T0
G92 E0.0000
G1 E-4.5000 F3600
G4 P1
; feature skirt
; tool H0.240 W0.576
G1 Z1.000 F1002
G1 X175.156 Y108.163 F9000
G1 Z0.240 F1002
G1 E0.0000 F3600
G92 E0.0000
G1 X176.083 Y108.219 E0.0534 F840
G1 X176.289 Y108.244 E0.0653
G1 X177.254 Y108.421 E0.1217
G1 X177.456 Y108.471 E0.1336
G1 X178.392 Y108.763 E0.1900
G1 X178.586 Y108.836 E0.2020
G1 X179.481 Y109.239 E0.2583
G1 X179.665 Y109.335 E0.2703
G1 X180.504 Y109.843 E0.3266
G1 X180.675 Y109.961 E0.3386
G1 X181.447 Y110.566 E0.3949
G1 X181.603 Y110.704 E0.4069
G1 X182.296 Y111.397 E0.4633
G1 X182.434 Y111.553 E0.4752
G1 X183.039 Y112.325 E0.5316
G1 X183.157 Y112.496 E0.5435
G1 X183.665 Y113.335 E0.5999
G1 X183.761 Y113.519 E0.6118
G1 X184.164 Y114.414 E0.6682
G1 X184.237 Y114.608 E0.6802
G1 X184.529 Y115.544 E0.7365
G1 X184.579 Y115.746 E0.7485
G1 X184.756 Y116.711 E0.8048
G1 X184.781 Y116.917 E0.8168
G1 X184.837 Y117.844 E0.8702
G1 X184.840 Y117.948 E0.8761
G1 X184.840 Y148.052 E2.6063
G1 X184.837 Y148.156 E2.6123
G1 X184.781 Y149.083 E2.6657
G1 X184.756 Y149.289 E2.6776
G1 X184.579 Y150.254 E2.7340
G1 X184.529 Y150.456 E2.7459
G1 X184.237 Y151.392 E2.8023
G1 X184.164 Y151.586 E2.8142
G1 X183.761 Y152.481 E2.8706
G1 X183.665 Y152.665 E2.8826
G1 X183.157 Y153.504 E2.9389
G1 X183.039 Y153.675 E2.9509
G1 X182.434 Y154.447 E3.0072
G1 X182.296 Y154.603 E3.0192
G1 X181.603 Y155.296 E3.0756
G1 X181.447 Y155.434 E3.0875
G1 X180.675 Y156.039 E3.1439
G1 X180.504 Y156.157 E3.1558
G1 X179.665 Y156.665 E3.2122
G1 X179.481 Y156.761 E3.2241
G1 X178.586 Y157.164 E3.2805
G1 X178.392 Y157.237 E3.2924
G1 X177.456 Y157.529 E3.3488
G1 X177.254 Y157.579 E3.3608
G1 X176.289 Y157.756 E3.4171
G1 X176.083 Y157.781 E3.4291
G1 X175.156 Y157.837 E3.4825
G1 X175.052 Y157.840 E3.4884
G1 X139.905 Y157.840 E5.5085
G1 X140.040 Y157.975 E5.5194
G1 X140.040 Y189.825 E7.3500
G1 X138.025 Y191.840 E7.5137
G1 X117.175 Y191.840 E8.7121
G1 X115.160 Y189.825 E8.8758
G1 X115.160 Y157.975 E10.7064
G1 X117.175 Y155.960 E10.8701
G1 X119.224 Y155.960 E10.9879
G1 X118.553 Y155.434 E11.0369
G1 X118.397 Y155.296 E11.0488
G1 X117.704 Y154.603 E11.1052
G1 X117.566 Y154.447 E11.1171
G1 X116.961 Y153.675 E11.1735
G1 X116.843 Y153.504 E11.1855
G1 X116.335 Y152.665 E11.2418
G1 X116.239 Y152.481 E11.2538
G1 X115.836 Y151.587 E11.3101
G1 X115.763 Y151.392 E11.3221
G1 X115.471 Y150.456 E11.3785
G1 X115.421 Y150.254 E11.3904
G1 X115.244 Y149.289 E11.4468
G1 X115.219 Y149.083 E11.4587
G1 X115.163 Y148.156 E11.5121
G1 X115.160 Y148.052 E11.5181
G1 X115.160 Y117.948 E13.2482
G1 X115.163 Y117.844 E13.2542
G1 X115.219 Y116.917 E13.3076
G1 X115.244 Y116.711 E13.3195
G1 X115.421 Y115.746 E13.3759
G1 X115.471 Y115.544 E13.3879
G1 X115.763 Y114.608 E13.4442
G1 X115.836 Y114.414 E13.4562
G1 X116.239 Y113.519 E13.5125
G1 X116.335 Y113.335 E13.5245
G1 X116.843 Y112.496 E13.5809
G1 X116.961 Y112.325 E13.5928
G1 X117.566 Y111.553 E13.6492
G1 X117.704 Y111.397 E13.6611
G1 X118.397 Y110.704 E13.7175
G1 X118.553 Y110.566 E13.7294
G1 X119.325 Y109.961 E13.7858
G1 X119.496 Y109.843 E13.7977
G1 X120.335 Y109.335 E13.8541
G1 X120.519 Y109.239 E13.8661
G1 X121.414 Y108.836 E13.9224
G1 X121.608 Y108.763 E13.9344
G1 X122.544 Y108.471 E13.9907
G1 X122.746 Y108.421 E14.0027
G1 X123.711 Y108.244 E14.0591
G1 X123.917 Y108.219 E14.0710
G1 X124.844 Y108.163 E14.1244
G1 X124.948 Y108.160 E14.1304
G1 X175.052 Y108.160 E17.0100
G1 X175.156 Y108.163 E17.0160
G92 E0.0000
G1 E-4.5000 F3600
G1 Z1.240 F1002
G1 X121.422 Y156.536 F9000
G1 Z0.240 F1002
G1 E0.0000 F3600
G92 E0.0000
G1 X120.771 Y156.243 E0.0410 F840
G1 X120.618 Y156.163 E0.0510
G1 X119.809 Y155.673 E0.1053
G1 X119.666 Y155.575 E0.1153
G1 X118.922 Y154.992 E0.1696
G1 X118.792 Y154.877 E0.1796
G1 X118.123 Y154.208 E0.2340
G1 X118.008 Y154.078 E0.2439
G1 X117.425 Y153.334 E0.2983
G1 X117.327 Y153.191 E0.3082
G1 X116.837 Y152.382 E0.3626
G1 X116.757 Y152.229 E0.3725
G1 X116.369 Y151.366 E0.4269
G1 X116.307 Y151.204 E0.4368
G1 X116.026 Y150.301 E0.4912
G1 X115.984 Y150.133 E0.5012
G1 X115.814 Y149.203 E0.5555
G1 X115.793 Y149.031 E0.5655
G1 X115.739 Y148.130 E0.6174
G1 X115.736 Y148.043 E0.6223
G1 X115.736 Y117.957 E2.3515
G1 X115.739 Y117.870 E2.3565
G1 X115.793 Y116.969 E2.4084
G1 X115.814 Y116.797 E2.4183
G1 X115.984 Y115.867 E2.4727
G1 X116.026 Y115.699 E2.4826
G1 X116.307 Y114.796 E2.5370
G1 X116.369 Y114.634 E2.5469
G1 X116.757 Y113.771 E2.6013
G1 X116.837 Y113.618 E2.6112
G1 X117.327 Y112.809 E2.6656
G1 X117.425 Y112.666 E2.6756
G1 X118.008 Y111.922 E2.7299
G1 X118.123 Y111.792 E2.7399
G1 X118.792 Y111.123 E2.7942
G1 X118.922 Y111.008 E2.8042
G1 X119.666 Y110.425 E2.8585
G1 X119.809 Y110.327 E2.8685
G1 X120.618 Y109.837 E2.9229
G1 X120.771 Y109.757 E2.9328
G1 X121.634 Y109.369 E2.9872
G1 X121.796 Y109.307 E2.9971
G1 X122.699 Y109.026 E3.0515
G1 X122.867 Y108.984 E3.0614
G1 X123.797 Y108.814 E3.1158
G1 X123.969 Y108.793 E3.1257
G1 X124.870 Y108.739 E3.1776
G1 X124.957 Y108.736 E3.1826
G1 X175.043 Y108.736 E6.0612
G1 X175.130 Y108.739 E6.0662
G1 X176.031 Y108.793 E6.1181
G1 X176.203 Y108.814 E6.1280
G1 X177.133 Y108.984 E6.1824
G1 X177.301 Y109.026 E6.1924
G1 X178.204 Y109.307 E6.2467
G1 X178.366 Y109.369 E6.2567
G1 X179.229 Y109.757 E6.3110
G1 X179.382 Y109.837 E6.3210
G1 X180.191 Y110.327 E6.3754
G1 X180.334 Y110.425 E6.3853
G1 X181.078 Y111.008 E6.4397
G1 X181.208 Y111.123 E6.4496
G1 X181.877 Y111.792 E6.5040
G1 X181.992 Y111.922 E6.5139
G1 X182.575 Y112.666 E6.5683
G1 X182.673 Y112.809 E6.5782
G1 X183.163 Y113.618 E6.6326
G1 X183.243 Y113.771 E6.6426
G1 X183.631 Y114.634 E6.6969
G1 X183.693 Y114.796 E6.7069
G1 X183.974 Y115.699 E6.7612
G1 X184.015 Y115.867 E6.7712
G1 X184.186 Y116.797 E6.8255
G1 X184.207 Y116.969 E6.8355
G1 X184.261 Y117.870 E6.8874
G1 X184.264 Y117.957 E6.8923
G1 X184.264 Y148.043 E8.6215
G1 X184.261 Y148.130 E8.6265
G1 X184.207 Y149.031 E8.6784
G1 X184.186 Y149.203 E8.6883
G1 X184.016 Y150.133 E8.7427
G1 X183.974 Y150.301 E8.7526
G1 X183.693 Y151.204 E8.8070
G1 X183.631 Y151.366 E8.8169
G1 X183.243 Y152.229 E8.8713
G1 X183.163 Y152.382 E8.8813
G1 X182.673 Y153.191 E8.9356
G1 X182.575 Y153.334 E8.9456
G1 X181.992 Y154.078 E8.9999
G1 X181.877 Y154.208 E9.0099
G1 X181.208 Y154.877 E9.0643
G1 X181.078 Y154.992 E9.0742
G1 X180.334 Y155.575 E9.1286
G1 X180.191 Y155.673 E9.1385
G1 X179.382 Y156.163 E9.1929
G1 X179.229 Y156.243 E9.2028
G1 X178.366 Y156.631 E9.2572
G1 X178.204 Y156.693 E9.2671
G1 X177.301 Y156.974 E9.3215
G1 X177.133 Y157.015 E9.3315
G1 X176.203 Y157.186 E9.3858
G1 X176.031 Y157.207 E9.3958
G1 X175.130 Y157.261 E9.4476
G1 X175.043 Y157.264 E9.4526
G1 X138.514 Y157.264 E11.5521
G1 X139.464 Y158.214 E11.6293
G1 X139.464 Y189.586 E13.4323
G1 X137.786 Y191.264 E13.5687
G1 X117.414 Y191.264 E14.7396
G1 X115.736 Y189.586 E14.8760
G1 X115.736 Y158.214 E16.6791
G1 X117.414 Y156.536 E16.8154
G1 X121.422 Y156.536 E17.0458
G92 E0.0000
G1 E-4.5000 F3600
G1 Z1.240 F1002
G1 X183.419 Y115.854 F9000
G1 Z0.240 F1002
G1 E0.0000 F3600
G92 E0.0000
G1 X183.452 Y115.988 E0.0079 F840
G1 X183.616 Y116.884 E0.0603
G1 X183.633 Y117.021 E0.0683
G1 X183.686 Y117.896 E0.1186
G1 X183.688 Y117.965 E0.1226
G1 X183.688 Y148.035 E1.8508
G1 X183.686 Y148.104 E1.8548
G1 X183.633 Y148.979 E1.9051
G1 X183.616 Y149.116 E1.9131
G1 X183.452 Y150.012 E1.9654
G1 X183.419 Y150.146 E1.9734
G1 X183.148 Y151.016 E2.0258
G1 X183.099 Y151.145 E2.0337
G1 X182.725 Y151.976 E2.0861
G1 X182.661 Y152.099 E2.0940
G1 X182.189 Y152.879 E2.1464
G1 X182.111 Y152.992 E2.1543
G1 X181.549 Y153.709 E2.2067
G1 X181.457 Y153.813 E2.2146
G1 X180.813 Y154.457 E2.2670
G1 X180.709 Y154.549 E2.2750
G1 X179.992 Y155.111 E2.3273
G1 X179.879 Y155.189 E2.3353
G1 X179.099 Y155.661 E2.3876
G1 X178.976 Y155.725 E2.3956
G1 X178.145 Y156.099 E2.4479
G1 X178.016 Y156.148 E2.4559
G1 X177.146 Y156.419 E2.5083
G1 X177.012 Y156.452 E2.5162
G1 X176.116 Y156.616 E2.5686
G1 X175.979 Y156.633 E2.5765
G1 X175.104 Y156.686 E2.6269
G1 X175.035 Y156.688 E2.6309
G1 X124.965 Y156.688 E5.5085
G1 X124.896 Y156.686 E5.5125
G1 X124.021 Y156.633 E5.5629
G1 X123.884 Y156.616 E5.5708
G1 X122.988 Y156.452 E5.6232
G1 X122.854 Y156.419 E5.6311
G1 X121.984 Y156.148 E5.6835
G1 X121.855 Y156.099 E5.6914
G1 X121.024 Y155.725 E5.7438
G1 X120.901 Y155.661 E5.7518
G1 X120.122 Y155.189 E5.8041
G1 X120.008 Y155.111 E5.8121
G1 X119.291 Y154.549 E5.8644
G1 X119.187 Y154.457 E5.8724
G1 X118.543 Y153.813 E5.9247
G1 X118.451 Y153.709 E5.9327
G1 X117.889 Y152.992 E5.9850
G1 X117.811 Y152.878 E5.9930
G1 X117.339 Y152.099 E6.0454
G1 X117.275 Y151.976 E6.0533
G1 X116.901 Y151.145 E6.1057
G1 X116.852 Y151.016 E6.1136
G1 X116.581 Y150.146 E6.1660
G1 X116.548 Y150.012 E6.1739
G1 X116.384 Y149.116 E6.2263
G1 X116.367 Y148.979 E6.2342
G1 X116.314 Y148.104 E6.2846
G1 X116.312 Y148.035 E6.2886
G1 X116.312 Y117.965 E8.0168
G1 X116.314 Y117.896 E8.0207
G1 X116.367 Y117.021 E8.0711
G1 X116.384 Y116.884 E8.0791
G1 X116.548 Y115.988 E8.1314
G1 X116.581 Y115.854 E8.1394
G1 X116.852 Y114.984 E8.1917
G1 X116.901 Y114.855 E8.1997
